X:1
T:Gavotte du bas Lon
C:Trad. Bretagne, fichier abc : Bernard Loffet
L:1/8
Q:210
M:2/2
K:C
 z3A [AA,,]A[AA,]A | [e2C,,2][eC,]e [dD,,]f[eD,]d | [cD,]B[AA,,]A [AA,,]A[AA,]A | \
 [e2C,,2][eC,]e [dD,,]f[eD,]d | [cD,]B[AA,,]d [dD,,]d[e2D,2] | [e2A,,2][AA,]d [dG,,]d[dG,]e | \
 [cG,]d[eC,,]d [dD,,]d[e2D,2] | [e2A,,2][AA,]d [dG,,]d[eG,]d | [cG,]B[AA,,]d [dD,,]d[e2D,2] | \
 [e2A,,2][AA,]d [dG,,]d[dG,]e | [cG,]d[eC,,]d [dD,,]d[e2D,2] | [e2A,,2][AA,]d [dG,,]d[eG,]d | \
 [cG,]B[A6A,,6] | \
W:Created with TablEdit http://www.tabledit.com/ by Bernard Loffet
